X:146
T:Conlon's Jig
R:jig
Z:id:hn-jig-146
M:6/8
K:G
e|dBB BAB|GEE EGE|DGG GAB|BAG A2e|dBB BAB|GEE EGE|DGG GAB|AGF G2:|
|:D|GBd g2e|dBB BAB|GBd ~g3|edB ABA|GBd g2e|dBB BAB|edB AGA|BGF G2:|

